X: 1
T: the Man of the House
S: Juergen Gier <Juergen.Gier@POST.RWTH-AACHEN.DE>
S: Philippe Varlet 
M: C|
L: 1/8
R: reel
K: EDor
D \
|: ~E2BE GABG | ~E2BE FDAF | ~E2BE GABc |1 dBBA BFAF :|2 dBBA BEE2 ||
||  e2ge fgaf |  gfed edBd |  e2ge fgaf |  gfed Beed |
|   e2ge fgaf |  gfed edBd |  bgaf gfed |1 edBA "da Capo"GEFD |]2 edBA GEE2 |]
